TV/Source/Deluxe Music.svg

<svg height="2.916767mm" viewBox="0 0 2.7075694 2.9167666" width="2.707569mm" xmlns="http://www.w3.org/2000/svg" xmlns:xlink="http://www.w3.org/1999/xlink"><clipPath id="a"><path d="m85.755 305.331h7.675v8.267h-7.675z"/></clipPath><clipPath id="b"><path d="m96.433662 307.99271-5.153899-4.56634-4.6917 5.29538 5.153899 4.56634z"/></clipPath><linearGradient id="c"><stop offset="0" stop-color="#bf181d"/><stop offset="1" stop-color="#93141b"/></linearGradient><linearGradient id="d" gradientTransform="matrix(-3.4520189 -3.0584846 -3.0584846 3.4520189 93.502731 310.12202)" gradientUnits="userSpaceOnUse" spreadMethod="pad" x1="0" x2="1" xlink:href="#c" y1="0" y2="0"/><clipPath id="e"><path d="m91.803318 316.73498 3.436749-6.62804-7.858815-4.07493-3.436749 6.62804z"/></clipPath><linearGradient id="f" gradientTransform="matrix(1.1019484 -2.125193 -2.125193 -1.1019484 88.934131 312.65282)" gradientUnits="userSpaceOnUse" spreadMethod="pad" x1="0" x2="1" xlink:href="#c" y1="0" y2="0"/><clipPath id="g"><path d="m89.152781 304.10899-5.325176 1.91525 2.367008 6.58125 5.325177-1.91525z"/></clipPath><linearGradient id="h" gradientTransform="matrix(-3.8739828 1.3933136 1.3933136 3.8739828 89.673176 307.63811)" gradientUnits="userSpaceOnUse" spreadMethod="pad" x1="0" x2="1" xlink:href="#c" y1="0" y2="0"/><clipPath id="i"><path d="m97.533803 308.96698-8.403136-7.44517-7.478786 8.44108 8.403136 7.44517z"/></clipPath><linearGradient id="j" gradientTransform="matrix(-4.1553006 -3.6815919 -3.6815919 4.1553006 91.990478 311.58931)" gradientUnits="userSpaceOnUse" spreadMethod="pad" x1="0" x2="1" xlink:href="#c" y1="0" y2="0"/><g clip-path="url(#i)" transform="matrix(.35277777 0 0 -.35277777 -30.252458 110.63076)"><path d="m85.756 311.384v-3.838l3.837-2.215 3.837 2.215v3.838l-3.837 2.215z" fill="url(#j)"/></g><g clip-path="url(#g)" transform="matrix(.35277777 0 0 -.35277777 -30.252458 110.63076)"><path d="m85.755 311.382v-3.836l3.837-2.215v3.837l-3.837 2.215z" fill="url(#h)"/></g><g clip-path="url(#e)" transform="matrix(.35277777 0 0 -.35277777 -30.252458 110.63076)"><path d="m85.755 311.384 3.837-2.216 3.837 2.216-3.837 2.215z" fill="url(#f)"/></g><g clip-path="url(#b)" transform="matrix(.35277777 0 0 -.35277777 -30.252458 110.63076)"><path d="m89.592 309.168v-3.837l3.837 2.215v3.838z" fill="url(#d)"/></g><g clip-path="url(#a)" transform="matrix(.35277777 0 0 -.35277777 -30.252458 110.63076)"><g transform="translate(92.5413 308.4183)"><path d="m0 0c-.06-.1-.194-.171-.333-.171-.227 0-.392.156-.392.408 0 .24.15.413.392.413.114 0 .239-.052.306-.135l.356.093c-.129.234-.375.388-.662.388-.419 0-.757-.319-.757-.759 0-.439.338-.758.757-.758.306 0 .566.171.687.429zm-1.658-.492h.35v1.458h-.35zm-.659.879c-.177.065-.322.101-.322.196 0 .059.06.111.164.111s.217-.061.252-.19l.338.092c-.069.229-.29.4-.569.4-.317 0-.546-.206-.546-.434 0-.256.202-.352.377-.418.208-.079.379-.109.379-.225 0-.071-.058-.129-.183-.129-.154 0-.258.11-.296.22l-.335-.089c.096-.273.312-.442.616-.442.34 0 .569.19.569.456 0 .25-.227.373-.444.452m-1.268-.222c0-.25-.102-.359-.294-.359s-.294.109-.294.359v.802h-.35v-.811c0-.437.257-.677.644-.677.385 0 .644.24.644.677v.811h-.35zm-1.806.36c-.107-.173-.123-.21-.125-.21h-.003c-.002 0-.018.037-.125.21l-.273.442h-.329v-1.459h.344v.357c0 .345-.012.516-.01.516h.002c.002 0 .119-.2.131-.221l.171-.291h.181l.171.291c.012.021.129.221.131.221h.002c.002 0-.01-.171-.01-.516v-.357h.344v1.459h-.33z" fill="#fff"/></g><g transform="translate(86.8046 309.8237)"><path d="m0 0c .166 0 .31.116.31.315s-.144.325-.31.325h-.229v-.64zm0 .9c.332 0 .6-.237.6-.585s-.268-.575-.6-.575h-.507v1.16z" fill="#fff"/></g><g transform="translate(88.4326 309.8237)"><path d="m0 0v-.26h-.854v1.16h.844v-.26h-.565v-.191h.442v-.243h-.442v-.206z" fill="#fff"/></g><g transform="translate(89.5053 309.8237)"><path d="m0 0v-.26h-.827v1.16h.278v-.9z" fill="#fff"/></g><g transform="translate(90.6624 310.7241)"><path d="m0 0v-.645c0-.348-.206-.539-.512-.539-.309 0-.513.191-.513.539v.645h.279v-.638c0-.199.081-.285.234-.285.152 0 .234.086.234.285v.638z" fill="#fff"/></g><g transform="translate(91.3322 309.9182)"><path d="m0 0c-.002 0-.071-.124-.086-.148l-.136-.207h-.332l.388.592-.371.569h.335l.139-.227c.016-.027.061-.115.063-.115h.002c.001 0 .046.088.063.115l.139.227h.335l-.372-.569.388-.592h-.331l-.136.207c-.015.024-.085.148-.086.148z" fill="#fff"/></g><g transform="translate(92.8872 309.8237)"><path d="m0 0v-.26h-.854v1.16h.844v-.26h-.565v-.191h.442v-.243h-.442v-.206z" fill="#fff"/></g></g></svg>

<?xml version="1.0" encoding="UTF-8" standalone="no"?>
<!-- Created with Inkscape (http://www.inkscape.org/) -->

<svg
   xmlns:dc="http://purl.org/dc/elements/1.1/"
   xmlns:cc="http://creativecommons.org/ns#"
   xmlns:rdf="http://www.w3.org/1999/02/22-rdf-syntax-ns#"
   xmlns:svg="http://www.w3.org/2000/svg"
   xmlns="http://www.w3.org/2000/svg"
   xmlns:sodipodi="http://sodipodi.sourceforge.net/DTD/sodipodi-0.dtd"
   xmlns:inkscape="http://www.inkscape.org/namespaces/inkscape"
   width="2.7075694mm"
   height="2.9167666mm"
   viewBox="0 0 2.7075694 2.9167666"
   version="1.1"
   id="svg57359"
   inkscape:version="0.92.0 r15299"
   sodipodi:docname="Deluxe Music.svg">
  <defs
     id="defs57353">
    <clipPath
       clipPathUnits="userSpaceOnUse"
       id="clipPath21416">
      <path
         d="m 372.123,460.03 h 15.475 v 7.72 h -15.475 z"
         id="path21414"
         inkscape:connector-curvature="0" />
    </clipPath>
    <clipPath
       clipPathUnits="userSpaceOnUse"
       id="clipPath22560">
      <path
         d="m 371.508,444.753 h 16.703 v 5.959 h -16.703 z"
         id="path22558"
         inkscape:connector-curvature="0" />
    </clipPath>
    <clipPath
       clipPathUnits="userSpaceOnUse"
       id="clipPath22854">
      <path
         d="m 374.889,427.436 h 9.943 v 8.277 h -9.943 z"
         id="path22852"
         inkscape:connector-curvature="0" />
    </clipPath>
    <clipPath
       clipPathUnits="userSpaceOnUse"
       id="clipPath23220">
      <path
         d="m 371.252,413.266 h 17.216 v 4.303 h -17.216 z"
         id="path23218"
         inkscape:connector-curvature="0" />
    </clipPath>
    <clipPath
       clipPathUnits="userSpaceOnUse"
       id="clipPath17000">
      <path
         d="m 85.755,305.331 h 7.675 v 8.267 h -7.675 z"
         id="path16998"
         inkscape:connector-curvature="0" />
    </clipPath>
    <clipPath
       clipPathUnits="userSpaceOnUse"
       id="clipPath16984">
      <path
         d="m 96.433662,307.99271 -5.153899,-4.56634 -4.6917,5.29538 5.153899,4.56634 z"
         id="path16982"
         inkscape:connector-curvature="0" />
    </clipPath>
    <linearGradient
       x1="0"
       y1="0"
       x2="1"
       y2="0"
       gradientUnits="userSpaceOnUse"
       gradientTransform="matrix(-3.4520189,-3.0584846,-3.0584846,3.4520189,93.502731,310.12202)"
       spreadMethod="pad"
       id="linearGradient16990">
      <stop
         style="stop-opacity:1;stop-color:#bf181d"
         offset="0"
         id="stop16986" />
      <stop
         style="stop-opacity:1;stop-color:#93141b"
         offset="1"
         id="stop16988" />
    </linearGradient>
    <clipPath
       clipPathUnits="userSpaceOnUse"
       id="clipPath16958">
      <path
         d="m 91.803318,316.73498 3.436749,-6.62804 -7.858815,-4.07493 -3.436749,6.62804 z"
         id="path16956"
         inkscape:connector-curvature="0" />
    </clipPath>
    <linearGradient
       x1="0"
       y1="0"
       x2="1"
       y2="0"
       gradientUnits="userSpaceOnUse"
       gradientTransform="matrix(1.1019484,-2.125193,-2.125193,-1.1019484,88.934131,312.65282)"
       spreadMethod="pad"
       id="linearGradient16964">
      <stop
         style="stop-opacity:1;stop-color:#bf181d"
         offset="0"
         id="stop16960" />
      <stop
         style="stop-opacity:1;stop-color:#93141b"
         offset="1"
         id="stop16962" />
    </linearGradient>
    <clipPath
       clipPathUnits="userSpaceOnUse"
       id="clipPath16932">
      <path
         d="m 89.152781,304.10899 -5.325176,1.91525 2.367008,6.58125 5.325177,-1.91525 z"
         id="path16930"
         inkscape:connector-curvature="0" />
    </clipPath>
    <linearGradient
       x1="0"
       y1="0"
       x2="1"
       y2="0"
       gradientUnits="userSpaceOnUse"
       gradientTransform="matrix(-3.8739828,1.3933136,1.3933136,3.8739828,89.673176,307.63811)"
       spreadMethod="pad"
       id="linearGradient16938">
      <stop
         style="stop-opacity:1;stop-color:#bf181d"
         offset="0"
         id="stop16934" />
      <stop
         style="stop-opacity:1;stop-color:#93141b"
         offset="1"
         id="stop16936" />
    </linearGradient>
    <clipPath
       clipPathUnits="userSpaceOnUse"
       id="clipPath16906">
      <path
         d="m 97.533803,308.96698 -8.403136,-7.44517 -7.478786,8.44108 8.403136,7.44517 z"
         id="path16904"
         inkscape:connector-curvature="0" />
    </clipPath>
    <linearGradient
       x1="0"
       y1="0"
       x2="1"
       y2="0"
       gradientUnits="userSpaceOnUse"
       gradientTransform="matrix(-4.1553006,-3.6815919,-3.6815919,4.1553006,91.990478,311.58931)"
       spreadMethod="pad"
       id="linearGradient16912">
      <stop
         style="stop-opacity:1;stop-color:#bf181d"
         offset="0"
         id="stop16908" />
      <stop
         style="stop-opacity:1;stop-color:#93141b"
         offset="1"
         id="stop16910" />
    </linearGradient>
  </defs>
  <sodipodi:namedview
     id="base"
     pagecolor="#ffffff"
     bordercolor="#666666"
     borderopacity="1.0"
     inkscape:pageopacity="0.0"
     inkscape:pageshadow="2"
     inkscape:zoom="31.678384"
     inkscape:cx="10.163656"
     inkscape:cy="4.6893318"
     inkscape:document-units="mm"
     inkscape:current-layer="layer1"
     showgrid="false"
     fit-margin-top="0"
     fit-margin-left="0"
     fit-margin-right="0"
     fit-margin-bottom="0"
     inkscape:window-width="1920"
     inkscape:window-height="1017"
     inkscape:window-x="-8"
     inkscape:window-y="-8"
     inkscape:window-maximized="1" />
  <metadata
     id="metadata57356">
    <rdf:RDF>
      <cc:Work
         rdf:about="">
        <dc:format>image/svg+xml</dc:format>
        <dc:type
           rdf:resource="http://purl.org/dc/dcmitype/StillImage" />
        <dc:title></dc:title>
      </cc:Work>
    </rdf:RDF>
  </metadata>
  <g
     inkscape:label="Layer 1"
     inkscape:groupmode="layer"
     id="layer1"
     transform="translate(19.744591,-145.35019)">
    <g
       transform="matrix(0.35277777,0,0,-0.35277777,-49.997049,255.98095)"
       id="g16890">
      <g
         id="g16892">
        <g
           id="g16898">
          <g
             id="g16900">
            <g
               id="g16902"
               clip-path="url(#clipPath16906)">
              <path
                 d="m 85.756,311.384 v -3.838 l 3.837,-2.215 3.837,2.215 v 3.838 l -3.837,2.215 z"
                 style="fill:url(#linearGradient16912);stroke:none"
                 id="path16914"
                 inkscape:connector-curvature="0" />
            </g>
          </g>
        </g>
      </g>
    </g>
    <g
       transform="matrix(0.35277777,0,0,-0.35277777,-49.997049,255.98095)"
       id="g16916">
      <g
         id="g16918">
        <g
           id="g16924">
          <g
             id="g16926">
            <g
               id="g16928"
               clip-path="url(#clipPath16932)">
              <path
                 d="m 85.755,311.382 v -3.836 l 3.837,-2.215 v 3.837 l -3.837,2.215 z"
                 style="fill:url(#linearGradient16938);stroke:none"
                 id="path16940"
                 inkscape:connector-curvature="0" />
            </g>
          </g>
        </g>
      </g>
    </g>
    <g
       transform="matrix(0.35277777,0,0,-0.35277777,-49.997049,255.98095)"
       id="g16942">
      <g
         id="g16944">
        <g
           id="g16950">
          <g
             id="g16952">
            <g
               id="g16954"
               clip-path="url(#clipPath16958)">
              <path
                 d="m 85.755,311.384 3.837,-2.216 3.837,2.216 -3.837,2.215 z"
                 style="fill:url(#linearGradient16964);stroke:none"
                 id="path16966"
                 inkscape:connector-curvature="0" />
            </g>
          </g>
        </g>
      </g>
    </g>
    <g
       transform="matrix(0.35277777,0,0,-0.35277777,-49.997049,255.98095)"
       id="g16968">
      <g
         id="g16970">
        <g
           id="g16976">
          <g
             id="g16978">
            <g
               id="g16980"
               clip-path="url(#clipPath16984)">
              <path
                 d="m 89.592,309.168 v -3.837 l 3.837,2.215 v 3.838 z"
                 style="fill:url(#linearGradient16990);stroke:none"
                 id="path16992"
                 inkscape:connector-curvature="0" />
            </g>
          </g>
        </g>
      </g>
    </g>
    <g
       transform="matrix(0.35277777,0,0,-0.35277777,-49.997049,255.98095)"
       id="g16994">
      <g
         id="g16996"
         clip-path="url(#clipPath17000)">
        <g
           id="g17002"
           transform="translate(92.5413,308.4183)">
          <path
             d="m 0,0 c -0.06,-0.1 -0.194,-0.171 -0.333,-0.171 -0.227,0 -0.392,0.156 -0.392,0.408 0,0.24 0.15,0.413 0.392,0.413 0.114,0 0.239,-0.052 0.306,-0.135 L 0.329,0.608 C 0.2,0.842 -0.046,0.996 -0.333,0.996 c -0.419,0 -0.757,-0.319 -0.757,-0.759 0,-0.439 0.338,-0.758 0.757,-0.758 0.306,0 0.566,0.171 0.687,0.429 z m -1.658,-0.492 h 0.35 v 1.458 h -0.35 z m -0.659,0.879 c -0.177,0.065 -0.322,0.101 -0.322,0.196 0,0.059 0.06,0.111 0.164,0.111 0.104,0 0.217,-0.061 0.252,-0.19 l 0.338,0.092 c -0.069,0.229 -0.29,0.4 -0.569,0.4 C -2.771,0.996 -3,0.79 -3,0.562 -3,0.306 -2.798,0.21 -2.623,0.144 c 0.208,-0.079 0.379,-0.109 0.379,-0.225 0,-0.071 -0.058,-0.129 -0.183,-0.129 -0.154,0 -0.258,0.11 -0.296,0.22 l -0.335,-0.089 c 0.096,-0.273 0.312,-0.442 0.616,-0.442 0.34,0 0.569,0.19 0.569,0.456 0,0.25 -0.227,0.373 -0.444,0.452 M -3.585,0.165 c 0,-0.25 -0.102,-0.359 -0.294,-0.359 -0.192,0 -0.294,0.109 -0.294,0.359 v 0.802 h -0.35 V 0.156 c 0,-0.437 0.257,-0.677 0.644,-0.677 0.385,0 0.644,0.24 0.644,0.677 v 0.811 h -0.35 z m -1.806,0.36 C -5.498,0.352 -5.514,0.315 -5.516,0.315 h -0.003 c -0.002,0 -0.018,0.037 -0.125,0.21 l -0.273,0.442 h -0.329 v -1.459 h 0.344 v 0.357 c 0,0.345 -0.012,0.516 -0.01,0.516 h 0.002 c 0.002,0 0.119,-0.2 0.131,-0.221 l 0.171,-0.291 h 0.181 l 0.171,0.291 c 0.012,0.021 0.129,0.221 0.131,0.221 h 0.002 c 0.002,0 -0.01,-0.171 -0.01,-0.516 v -0.357 h 0.344 v 1.459 h -0.33 z"
             style="fill:#ffffff;fill-opacity:1;fill-rule:nonzero;stroke:none"
             id="path17004"
             inkscape:connector-curvature="0" />
        </g>
        <g
           id="g17006"
           transform="translate(86.8046,309.8237)">
          <path
             d="M 0,0 C 0.166,0 0.31,0.116 0.31,0.315 0.31,0.514 0.166,0.64 0,0.64 H -0.229 V 0 Z M 0,0.9 C 0.332,0.9 0.6,0.663 0.6,0.315 0.6,-0.033 0.332,-0.26 0,-0.26 H -0.507 V 0.9 Z"
             style="fill:#ffffff;fill-opacity:1;fill-rule:nonzero;stroke:none"
             id="path17008"
             inkscape:connector-curvature="0" />
        </g>
        <g
           id="g17010"
           transform="translate(88.4326,309.8237)">
          <path
             d="M 0,0 V -0.26 H -0.854 V 0.9 H -0.01 V 0.64 H -0.575 V 0.449 h 0.442 V 0.206 H -0.575 V 0 Z"
             style="fill:#ffffff;fill-opacity:1;fill-rule:nonzero;stroke:none"
             id="path17012"
             inkscape:connector-curvature="0" />
        </g>
        <g
           id="g17014"
           transform="translate(89.5053,309.8237)">
          <path
             d="M 0,0 V -0.26 H -0.827 V 0.9 h 0.278 V 0 Z"
             style="fill:#ffffff;fill-opacity:1;fill-rule:nonzero;stroke:none"
             id="path17016"
             inkscape:connector-curvature="0" />
        </g>
        <g
           id="g17018"
           transform="translate(90.6624,310.7241)">
          <path
             d="m 0,0 v -0.645 c 0,-0.348 -0.206,-0.539 -0.512,-0.539 -0.309,0 -0.513,0.191 -0.513,0.539 V 0 h 0.279 v -0.638 c 0,-0.199 0.081,-0.285 0.234,-0.285 0.152,0 0.234,0.086 0.234,0.285 V 0 Z"
             style="fill:#ffffff;fill-opacity:1;fill-rule:nonzero;stroke:none"
             id="path17020"
             inkscape:connector-curvature="0" />
        </g>
        <g
           id="g17022"
           transform="translate(91.3322,309.9182)">
          <path
             d="m 0,0 c -0.002,0 -0.071,-0.124 -0.086,-0.148 l -0.136,-0.207 h -0.332 l 0.388,0.592 -0.371,0.569 h 0.335 L -0.063,0.579 C -0.047,0.552 -0.002,0.464 0,0.464 h 0.002 c 0.001,0 0.046,0.088 0.063,0.115 L 0.204,0.806 H 0.539 L 0.167,0.237 0.555,-0.355 H 0.224 L 0.088,-0.148 C 0.073,-0.124 0.003,0 0.002,0 Z"
             style="fill:#ffffff;fill-opacity:1;fill-rule:nonzero;stroke:none"
             id="path17024"
             inkscape:connector-curvature="0" />
        </g>
        <g
           id="g17026"
           transform="translate(92.8872,309.8237)">
          <path
             d="M 0,0 V -0.26 H -0.854 V 0.9 H -0.01 V 0.64 H -0.575 V 0.449 h 0.442 V 0.206 H -0.575 V 0 Z"
             style="fill:#ffffff;fill-opacity:1;fill-rule:nonzero;stroke:none"
             id="path17028"
             inkscape:connector-curvature="0" />
        </g>
      </g>
    </g>
  </g>
</svg>
